X: 807
T: The Wedding Dance
%R: jig
B: "The Compleat Country Dancing-Master" printed by John Walsh, London ca. 1740
S: 6: CCDM2 http://imslp.org/wiki/The_Compleat_Country_Dancing-Master_(Various) V.2 (132)
Z: 2013 John Chambers <jc:trillian.mit.edu>
M: 6/4
L: 1/8
K: D
% - - - - - - - - - - - - - - - - - - - - - - - - -
AG |\
(F2D2)A2 d4AG | (F2D2)A2 d4e2 | (f3e)f2 (f3e)f2 | (f3e)d2 e4f2 |\
g3ag2 b3ag2 | f3ed2 a4A2 | A2(FG)A2 A2(FG)A2 | A2(FG)A2 D4 |]
a2 |\
a2(fg)a2 b2(ga)b2 | a2(fg)a2 g4f2 | e2d2c2 B2c2d2 | e2f2g2 B4A2 |\
A2(FG)A2 B2(dc)B2 | A2(FG)A2 B4f2 | g2(Bc)d2 a2(cd)e2 | e2(AB)c2 d4 |]
% - - - - - - - - - - - - - - - - - - - - - - - - -
%%begintext align
%% The 1st Cu. lead thro between the 2d Cu. and cast up
%% again then Arms .| The 2d Cu. do the same :| Then Back to
%% Back all with your Partners then right and left the 1st
%% Cu. being in the 2d Cu Place .| Then the 1st Cu half
%% Figure then 1st Man and 2d Wo. and 2d Man and 1st
%% Wo. Arms round then 1st Man and 1st Wo. [change places?].
%%endtext
%%sep 1 8 500

%%sep 1 1 500
%%sep 1 1 500
